config/luts/REDLog3G10_RWG_to_Rec709.cube
# REDLog3G10 / REDWideGamutRGB → Rec.709
# Generated by spheris-smart-stitch/tools/generate_lut.py
TITLE "REDLog3G10 RWG to Rec.709"
LUT_3D_SIZE 9
DOMAIN_MIN 0.0 0.0 0.0
DOMAIN_MAX 1.0 1.0 1.0
0.000000 0.000000 0.000000
0.009918 0.000000 0.000000
0.038618 0.000000 0.000000
0.085187 0.000000 0.000000
0.145784 0.000000 0.000000
0.216442 0.000000 0.000000
0.301096 0.000000 0.000000
0.404001 0.000000 0.000000
0.530127 0.000000 0.000000
0.000000 0.006379 0.000000
0.005394 0.005092 0.000000
0.034095 0.003245 0.000000
0.080463 0.000260 0.000000
0.142643 0.000000 0.000000
0.214146 0.000000 0.000000
0.299383 0.000000 0.000000
0.402707 0.000000 0.000000
0.529143 0.000000 0.000000
0.000000 0.030001 0.000000
0.000000 0.028714 0.000000
0.027601 0.026866 0.000000
0.073969 0.023881 0.000000
0.138045 0.019059 0.000000
0.210814 0.011268 0.000000
0.296907 0.000000 0.000000
0.400841 0.000000 0.000000
0.527727 0.000000 0.000000
0.000000 0.068163 0.000000
0.000000 0.066876 0.000000
0.017110 0.065029 0.000000
0.063478 0.062044 0.000000
0.130377 0.057221 0.000000
0.205336 0.049430 0.000000
0.292866 0.036843 0.000000
0.397810 0.016508 0.000000
0.525431 0.000000 0.000000
0.000000 0.123871 0.000000
0.000000 0.122874 0.000000
0.000160 0.121433 0.000000
0.046529 0.119080 0.000000
0.117280 0.115213 0.000000
0.196222 0.108777 0.000000
0.286227 0.097832 0.000000
0.392864 0.078163 0.000000
0.521700 0.045309 0.000000
0.000000 0.188967 0.000000
0.000000 0.188239 0.000000
0.000000 0.187190 0.000000
0.019145 0.185485 0.000000
0.093788 0.182704 0.000000
0.180723 0.178139 0.000000
0.275197 0.170562 0.000000
0.384743 0.157739 0.000000
0.515614 0.135184 0.000000
0.000000 0.266772 0.000000
0.000000 0.266229 0.000000
0.000000 0.265447 0.000000
0.000000 0.264181 0.000000
0.049817 0.262122 0.000000
0.153188 0.258766 0.000000
0.256485 0.253262 0.000000
0.371258 0.244139 0.000000
0.505622 0.228740 0.000000
0.000000 0.361225 0.000000
0.000000 0.360815 0.000000
0.000000 0.360225 0.000000
0.000000 0.359271 0.000000
0.000000 0.357724 0.000000
0.098614 0.355212 0.000000
0.223410 0.351116 0.000000
0.348414 0.344401 0.000000
0.489039 0.333281 0.000000
0.000000 0.476903 0.000000
0.000000 0.476591 0.000000
0.000000 0.476143 0.000000
0.000000 0.475419 0.000000
0.000000 0.474246 0.000000
0.000000 0.472345 0.000000
0.158812 0.469258 0.000000
0.308151 0.464226 0.000000
0.460969 0.455979 0.000000
0.000000 0.000000 0.004943
0.008545 0.000000 0.004810
0.037245 0.000000 0.004620
0.083842 0.000000 0.004313
0.144836 0.000000 0.003816
0.215747 0.000000 0.003014
0.300577 0.000000 0.001718
0.403608 0.000000 0.000000
0.529828 0.000000 0.000000
0.000000 0.005308 0.004154
0.004021 0.004021 0.004021
0.032722 0.002174 0.003831
0.079090 0.000000 0.003524
0.141680 0.000000 0.003027
0.213445 0.000000 0.002225
0.298861 0.000000 0.000929
0.402313 0.000000 0.000000
0.528844 0.000000 0.000000
0.000000 0.028929 0.003020
0.000000 0.027642 0.002888
0.026228 0.025795 0.002698
0.072596 0.022810 0.002390
0.137059 0.017988 0.001894
0.210104 0.010197 0.001092
0.296381 0.000000 0.000000
0.400446 0.000000 0.000000
0.527427 0.000000 0.000000
0.000000 0.067092 0.001190
0.000000 0.065805 0.001057
0.015737 0.063957 0.000867
0.062105 0.060972 0.000560
0.129350 0.056150 0.000063
0.204610 0.048359 0.000000
0.292333 0.035772 0.000000
0.397412 0.015436 0.000000
0.525130 0.000000 0.000000
0.000000 0.123041 0.000000
0.000000 0.122040 0.000000
0.000000 0.120592 0.000000
0.045156 0.118228 0.000000
0.116176 0.114342 0.000000
0.195468 0.107873 0.000000
0.285684 0.096866 0.000000
0.392461 0.077092 0.000000
0.521397 0.044237 0.000000
0.000000 0.188361 0.000000
0.000000 0.187632 0.000000
0.000000 0.186580 0.000000
0.017772 0.184870 0.000000
0.092516 0.182082 0.000000
0.179918 0.177504 0.000000
0.274633 0.169905 0.000000
0.384331 0.157041 0.000000
0.515307 0.134404 0.000000
0.000000 0.266320 0.000000
0.000000 0.265776 0.000000
0.000000 0.264993 0.000000
0.000000 0.263725 0.000000
0.048444 0.261663 0.000000
0.152274 0.258302 0.000000
0.255885 0.252788 0.000000
0.370832 0.243650 0.000000
0.505309 0.228223 0.000000
0.000000 0.360884 0.000000
0.000000 0.360473 0.000000
0.000000 0.359883 0.000000
0.000000 0.358928 0.000000
0.000000 0.357380 0.000000
0.097380 0.354865 0.000000
0.222734 0.350765 0.000000
0.347961 0.344043 0.000000
0.488715 0.332913 0.000000
0.000000 0.476643 0.000000
0.000000 0.476332 0.000000
0.000000 0.475883 0.000000
0.000000 0.475159 0.000000
0.000000 0.473985 0.000000
0.000000 0.472083 0.000000
0.157922 0.468994 0.000000
0.307643 0.463960 0.000000
0.460625 0.455707 0.000000
0.000000 0.000000 0.026502
0.006574 0.000000 0.026370
0.035274 0.000000 0.026179
0.081890 0.000000 0.025872
0.143467 0.000000 0.025376
0.214747 0.000000 0.024574
0.299830 0.000000 0.023278
0.403044 0.000000 0.021184
0.529399 0.000000 0.017801
0.000000 0.003770 0.025713
0.002050 0.002483 0.025580
0.030751 0.000636 0.025390
0.077119 0.000000 0.025083
0.140289 0.000000 0.024586
0.212436 0.000000 0.023784
0.298110 0.000000 0.022488
0.401747 0.000000 0.020395
0.528414 0.000000 0.017012
0.000000 0.027391 0.024580
0.000000 0.026104 0.024447
0.024257 0.024257 0.024257
0.070625 0.021272 0.023950
0.135634 0.016450 0.023453
0.209081 0.008659 0.022651
0.295624 0.000000 0.021355
0.399878 0.000000 0.019261
0.526996 0.000000 0.015879
0.000000 0.065554 0.022749
0.000000 0.064267 0.022616
0.013766 0.062419 0.022426
0.060134 0.059434 0.022119
0.127866 0.054612 0.021622
0.203564 0.046821 0.020820
0.291567 0.034234 0.019524
0.396839 0.013898 0.017430
0.524697 0.000000 0.014048
0.000000 0.121844 0.019791
0.000000 0.120836 0.019658
0.000000 0.119378 0.019468
0.043185 0.116998 0.019161
0.114580 0.113084 0.018664
0.194382 0.106567 0.017862
0.284901 0.095468 0.016566
0.391881 0.075554 0.014473
0.520961 0.042699 0.011090
0.000000 0.187489 0.015012
0.000000 0.186756 0.014880
0.000000 0.185701 0.014690
0.015801 0.183985 0.014382
0.090673 0.181185 0.013886
0.178757 0.176589 0.013084
0.273823 0.168958 0.011788
0.383740 0.156036 0.009694
0.514866 0.133278 0.006311
0.000000 0.265670 0.007292
0.000000 0.265125 0.007159
0.000000 0.264340 0.006969
0.000000 0.263069 0.006662
0.046473 0.261003 0.006165
0.150954 0.257634 0.005363
0.255021 0.252107 0.004067
0.370220 0.242947 0.001974
0.504859 0.227479 0.000000
0.000000 0.360393 0.000000
0.000000 0.359982 0.000000
0.000000 0.359391 0.000000
0.000000 0.358435 0.000000
0.000000 0.356885 0.000000
0.095593 0.354366 0.000000
0.221760 0.350261 0.000000
0.347310 0.343530 0.000000
0.488249 0.332383 0.000000
0.000000 0.476271 0.000000
0.000000 0.475959 0.000000
0.000000 0.475510 0.000000
0.000000 0.474785 0.000000
0.000000 0.473611 0.000000
0.000000 0.471707 0.000000
0.156639 0.468616 0.000000
0.306912 0.463577 0.000000
0.460131 0.455317 0.000000
0.000000 0.000000 0.061333
0.003389 0.000000 0.061201
0.032090 0.000000 0.061011
0.078458 0.000000 0.060703
0.141235 0.000000 0.060207
0.213122 0.000000 0.059405
0.298620 0.000000 0.058109
0.402132 0.000000 0.056015
0.528706 0.000000 0.052632
0.000000 0.001285 0.060544
0.000000 0.000000 0.060411
0.027566 0.000000 0.060221
0.073935 0.000000 0.059914
0.138020 0.000000 0.059417
0.210796 0.000000 0.058615
0.296893 0.000000 0.057319
0.400831 0.000000 0.055226
0.527719 0.000000 0.051843
0.000000 0.024907 0.059411
0.000000 0.023620 0.059278
0.021073 0.021772 0.059088
0.067441 0.018787 0.058781
0.133310 0.013965 0.058284
0.207419 0.006174 0.057482
0.294398 0.000000 0.056186
0.398958 0.000000 0.054092
0.526299 0.000000 0.050710
0.000000 0.063069 0.057580
0.000000 0.061782 0.057447
0.010581 0.059935 0.057257
0.056950 0.056950 0.056950
0.125443 0.052127 0.056453
0.201865 0.044336 0.055651
0.290325 0.031749 0.054355
0.395912 0.011414 0.052262
0.523997 0.000000 0.048879
0.000000 0.119892 0.054622
0.000000 0.118873 0.054489
0.000000 0.117399 0.054299
0.040000 0.114992 0.053992
0.111969 0.111032 0.053495
0.192618 0.104434 0.052693
0.283633 0.093184 0.051397
0.390943 0.073069 0.049304
0.520256 0.040215 0.045921
0.000000 0.186072 0.049843
0.000000 0.185335 0.049711
0.000000 0.184273 0.049521
0.012617 0.182547 0.049213
0.087647 0.179729 0.048717
0.176870 0.175103 0.047915
0.272508 0.167421 0.046619
0.382782 0.154402 0.044525
0.514152 0.131444 0.041142
0.000000 0.264616 0.042123
0.000000 0.264069 0.041990
0.000000 0.263282 0.041800
0.000000 0.262006 0.041493
0.043289 0.259932 0.040996
0.148805 0.256551 0.040194
0.253620 0.251004 0.038898
0.369228 0.241807 0.036805
0.504131 0.226273 0.033422
0.000000 0.359599 0.029650
0.000000 0.359187 0.029517
0.000000 0.358595 0.029327
0.000000 0.357637 0.029020
0.000000 0.356083 0.028523
0.092662 0.353559 0.027721
0.220178 0.349445 0.026425
0.346255 0.342699 0.024331
0.487496 0.331526 0.020949
0.000000 0.475668 0.009498
0.000000 0.475355 0.009366
0.000000 0.474906 0.009175
0.000000 0.474180 0.008868
0.000000 0.473004 0.008372
0.000000 0.471098 0.007570
0.154548 0.468003 0.006274
0.305728 0.462957 0.004180
0.459331 0.454687 0.000797
0.000000 0.000000 0.114180
0.000000 0.000000 0.114072
0.026945 0.000000 0.113916
0.073314 0.000000 0.113665
0.137575 0.000000 0.113258
0.210475 0.000000 0.112599
0.296655 0.000000 0.111529
0.400653 0.000000 0.109786
0.527584 0.000000 0.106932
0.000000 0.000000 0.113535
0.000000 0.000000 0.113426
0.022422 0.000000 0.113270
0.068790 0.000000 0.113018
0.134298 0.000000 0.112610
0.208125 0.000000 0.111948
0.294918 0.000000 0.110874
0.399348 0.000000 0.109124
0.526595 0.000000 0.106259
0.000000 0.020893 0.112604
0.000000 0.019606 0.112495
0.015928 0.017758 0.112338
0.062296 0.014773 0.112085
0.129494 0.009951 0.111674
0.204711 0.002160 0.111009
0.292407 0.000000 0.109929
0.397467 0.000000 0.108170
0.525172 0.000000 0.105288
0.000000 0.059055 0.111091
0.000000 0.057768 0.110981
0.005437 0.055920 0.110822
0.051805 0.052936 0.110567
0.121460 0.048113 0.110153
0.199096 0.040322 0.109482
0.288309 0.027735 0.108392
0.394411 0.007400 0.106616
0.522865 0.000000 0.103708
0.000000 0.116693 0.108617
0.000000 0.115655 0.108505
0.000000 0.114155 0.108345
0.034856 0.111702 0.108085
0.107665 0.107665 0.107665
0.189739 0.100930 0.106984
0.281573 0.089423 0.105878
0.389423 0.069055 0.104076
0.519115 0.036201 0.101121
0.000000 0.183766 0.104542
0.000000 0.183021 0.104428
0.000000 0.181948 0.104263
0.007472 0.180204 0.103997
0.082628 0.177358 0.103567
0.173787 0.172682 0.102869
0.270372 0.164913 0.101735
0.381230 0.151734 0.099887
0.512997 0.128443 0.096855
0.000000 0.262907 0.097740
0.000000 0.262356 0.097620
0.000000 0.261565 0.097449
0.000000 0.260281 0.097172
0.038144 0.258195 0.096723
0.145283 0.254794 0.095995
0.251343 0.249212 0.094812
0.367620 0.239956 0.092881
0.502952 0.224312 0.089711
0.000000 0.358313 0.086098
0.000000 0.357900 0.085969
0.000000 0.357306 0.085784
0.000000 0.356344 0.085486
0.000000 0.354785 0.085002
0.087808 0.352252 0.084216
0.217603 0.348123 0.082939
0.344546 0.341352 0.080604
0.486276 0.330136 0.077222
0.000000 0.474693 0.065771
0.000000 0.474379 0.065639
0.000000 0.473929 0.065448
0.000000 0.473202 0.065141
0.000000 0.472023 0.064645
0.000000 0.470113 0.063843
0.151125 0.467011 0.062547
0.303805 0.461955 0.060453
0.458035 0.453666 0.057070
0.000000 0.000000 0.176848
0.000000 0.000000 0.176769
0.018634 0.000000 0.176655
0.065002 0.000000 0.176472
0.131511 0.000000 0.176176
0.206139 0.000000 0.175697
0.293456 0.000000 0.174920
0.398252 0.000000 0.173659
0.525765 0.000000 0.171607
0.000000 0.000000 0.176377
0.000000 0.000000 0.176298
0.014110 0.000000 0.176185
0.060479 0.000000 0.176001
0.128127 0.000000 0.175704
0.203747 0.000000 0.175224
0.291701 0.000000 0.174445
0.396939 0.000000 0.173182
0.524773 0.000000 0.171126
0.000000 0.014407 0.175700
0.000000 0.013120 0.175621
0.007617 0.011273 0.175507
0.053985 0.008288 0.175323
0.123158 0.003465 0.175025
0.200273 0.000000 0.174543
0.289165 0.000000 0.173762
0.395048 0.000000 0.172495
0.523345 0.000000 0.170432
0.000000 0.052570 0.174602
0.000000 0.051283 0.174522
0.000000 0.049435 0.174408
0.043494 0.046450 0.174223
0.114831 0.041628 0.173924
0.194553 0.033837 0.173439
0.285024 0.021250 0.172655
0.391972 0.000914 0.171381
0.521029 0.000000 0.169308
0.000000 0.111399 0.172816
0.000000 0.110329 0.172736
0.000000 0.108781 0.172621
0.026544 0.106250 0.172434
0.100471 0.102078 0.172133
0.185013 0.095105 0.171644
0.278216 0.083143 0.170853
0.386954 0.062569 0.169569
0.517266 0.029715 0.167479
0.000000 0.179989 0.169901
0.000000 0.179232 0.169820
0.000000 0.178141 0.169703
0.000000 0.176368 0.169514
0.074073 0.173472 0.169208
0.168713 0.168713 0.168713
0.266889 0.160798 0.167912
0.378709 0.147349 0.166610
0.511125 0.123489 0.164491
0.000000 0.260123 0.165107
0.000000 0.259568 0.165024
0.000000 0.258768 0.164905
0.000000 0.257472 0.164711
0.029832 0.255366 0.164399
0.139458 0.251931 0.163893
0.247625 0.246293 0.163073
0.365009 0.236938 0.161742
0.501042 0.221113 0.159574
0.000000 0.356226 0.157130
0.000000 0.355810 0.157043
0.000000 0.355213 0.156919
0.000000 0.354246 0.156719
0.000000 0.352678 0.156394
0.079386 0.350131 0.155869
0.213388 0.345978 0.155018
0.341766 0.339166 0.153634
0.484299 0.327879 0.151380
0.000000 0.473112 0.143558
0.000000 0.472798 0.143465
0.000000 0.472347 0.143333
0.000000 0.471616 0.143118
0.000000 0.470434 0.142771
0.000000 0.468518 0.142210
0.145470 0.465405 0.141299
0.300675 0.460330 0.139818
0.455934 0.452012 0.137401
0.000000 0.000000 0.251652
0.000000 0.000000 0.251593
0.005206 0.000000 0.251508
0.051574 0.000000 0.251372
0.121279 0.000000 0.251151
0.198970 0.000000 0.250794
0.288218 0.000000 0.250217
0.394343 0.000000 0.249281
0.522814 0.000000 0.247762
0.000000 0.000000 0.251301
0.000000 0.000000 0.251242
0.000682 0.000000 0.251158
0.047051 0.000000 0.251021
0.117698 0.000000 0.250800
0.196507 0.000000 0.250442
0.286434 0.000000 0.249864
0.393018 0.000000 0.248927
0.521815 0.000000 0.247407
0.000000 0.003929 0.250797
0.000000 0.002642 0.250738
0.000000 0.000795 0.250653
0.040557 0.000000 0.250516
0.112428 0.000000 0.250295
0.192927 0.000000 0.249937
0.283855 0.000000 0.249357
0.391107 0.000000 0.248419
0.520379 0.000000 0.246896
0.000000 0.042092 0.249980
0.000000 0.040805 0.249921
0.000000 0.038957 0.249836
0.030066 0.035972 0.249699
0.103557 0.031150 0.249477
0.187027 0.023359 0.249118
0.279643 0.010772 0.248537
0.388002 0.000000 0.247595
0.518050 0.000000 0.246068
0.000000 0.102484 0.248656
0.000000 0.101356 0.248597
0.000000 0.099722 0.248512
0.013116 0.097047 0.248374
0.088126 0.092628 0.248151
0.177167 0.085214 0.247790
0.272715 0.072427 0.247206
0.382932 0.052092 0.246260
0.514264 0.019237 0.244726
0.000000 0.173753 0.246504
0.000000 0.172974 0.246444
0.000000 0.171853 0.246358
0.000000 0.170028 0.246219
0.060645 0.167048 0.245995
0.160259 0.162145 0.245631
0.261175 0.153978 0.245043
0.374602 0.140055 0.244090
0.508086 0.115189 0.242543
0.000000 0.255570 0.242992
0.000000 0.255005 0.242932
0.000000 0.254194 0.242844
0.000000 0.252877 0.242704
0.016404 0.250737 0.242476
0.129662 0.247246 0.242108
0.241512 0.241512 0.241512
0.360752 0.231991 0.240547
0.497940 0.215860 0.238981
0.000000 0.352829 0.237223
0.000000 0.352410 0.237161
0.000000 0.351807 0.237072
0.000000 0.350831 0.236928
0.000000 0.349248 0.236696
0.065958 0.346677 0.236320
0.206427 0.342484 0.235712
0.337230 0.335605 0.234726
0.481088 0.324202 0.233126
0.000000 0.470548 0.227638
0.000000 0.470232 0.227574
0.000000 0.469778 0.227482
0.000000 0.469044 0.227333
0.000000 0.467855 0.227092
0.000000 0.465928 0.226702
0.135981 0.462797 0.226072
0.295555 0.457694 0.225050
0.452520 0.449326 0.223391
0.000000 0.000000 0.342396
0.000000 0.000000 0.342352
0.000000 0.000000 0.342288
0.029880 0.000000 0.342185
0.103395 0.000000 0.342019
0.186921 0.000000 0.341750
0.279568 0.000000 0.341314
0.387946 0.000000 0.340610
0.518009 0.000000 0.339469
0.000000 0.000000 0.342132
0.000000 0.000000 0.342087
0.000000 0.000000 0.342024
0.025356 0.000000 0.341920
0.099416 0.000000 0.341754
0.184329 0.000000 0.341484
0.277734 0.000000 0.341049
0.386600 0.000000 0.340344
0.517001 0.000000 0.339202
0.000000 0.000000 0.341752
0.000000 0.000000 0.341707
0.000000 0.000000 0.341643
0.018863 0.000000 0.341540
0.093527 0.000000 0.341373
0.180557 0.000000 0.341104
0.275081 0.000000 0.340667
0.384658 0.000000 0.339962
0.515551 0.000000 0.338819
0.000000 0.025164 0.341136
0.000000 0.023877 0.341092
0.000000 0.022030 0.341028
0.008371 0.019045 0.340924
0.083518 0.014222 0.340757
0.174329 0.006431 0.340487
0.270747 0.000000 0.340050
0.381502 0.000000 0.339343
0.513199 0.000000 0.338198
0.000000 0.086964 0.340140
0.000000 0.085719 0.340096
0.000000 0.083912 0.340031
0.000000 0.080700 0.339928
0.066335 0.075878 0.339760
0.163882 0.068087 0.339489
0.263609 0.055500 0.339051
0.376348 0.035164 0.338342
0.509376 0.002310 0.337194
0.000000 0.163291 0.338525
0.000000 0.162475 0.338480
0.000000 0.161297 0.338416
0.000000 0.159381 0.338312
0.038951 0.156248 0.338143
0.145839 0.151085 0.337871
0.251701 0.142457 0.337431
0.367873 0.127660 0.336719
0.503137 0.100879 0.335566
0.000000 0.248058 0.335900
0.000000 0.247479 0.335855
0.000000 0.246645 0.335790
0.000000 0.245294 0.335685
0.000000 0.243095 0.335516
0.112650 0.239507 0.335241
0.231343 0.233610 0.334798
0.353770 0.223803 0.334081
0.492887 0.207140 0.332919
0.000000 0.347274 0.331618
0.000000 0.346848 0.331572
0.000000 0.346236 0.331507
0.000000 0.345245 0.331400
0.000000 0.343638 0.331229
0.044263 0.341027 0.330951
0.194753 0.336767 0.330502
0.329776 0.329776 0.329776
0.475853 0.318177 0.328600
0.000000 0.466375 0.324588
0.000000 0.466056 0.324541
0.000000 0.465598 0.324474
0.000000 0.464857 0.324365
0.000000 0.463657 0.324190
0.000000 0.461713 0.323907
0.119574 0.458553 0.323449
0.287106 0.453402 0.322708
0.446948 0.444953 0.321508
0.000000 0.000000 0.453487
0.000000 0.000000 0.453453
0.000000 0.000000 0.453404
0.000000 0.000000 0.453326
0.069743 0.000000 0.453200
0.166023 0.000000 0.452995
0.265058 0.000000 0.452665
0.377390 0.000000 0.452130
0.510147 0.000000 0.451265
0.000000 0.000000 0.453286
0.000000 0.000000 0.453252
0.000000 0.000000 0.453203
0.000000 0.000000 0.453125
0.065220 0.000000 0.452998
0.163176 0.000000 0.452794
0.263134 0.000000 0.452463
0.376006 0.000000 0.451928
0.509124 0.000000 0.451063
0.000000 0.000000 0.452997
0.000000 0.000000 0.452963
0.000000 0.000000 0.452914
0.000000 0.000000 0.452836
0.058726 0.000000 0.452709
0.159023 0.000000 0.452505
0.260349 0.000000 0.452174
0.374011 0.000000 0.451639
0.507651 0.000000 0.450773
0.000000 0.000000 0.452530
0.000000 0.000000 0.452496
0.000000 0.000000 0.452447
0.000000 0.000000 0.452369
0.048235 0.000000 0.452242
0.152134 0.000000 0.452037
0.255793 0.000000 0.451706
0.370767 0.000000 0.451170
0.505261 0.000000 0.450303
0.000000 0.059471 0.451774
0.000000 0.058184 0.451740
0.000000 0.056336 0.451692
0.000000 0.053351 0.451613
0.031285 0.048529 0.451486
0.140489 0.040738 0.451281
0.248278 0.028151 0.450949
0.365467 0.007815 0.450412
0.501377 0.000000 0.449544
0.000000 0.145219 0.450551
0.000000 0.144328 0.450517
0.000000 0.143042 0.450468
0.000000 0.140946 0.450389
0.003902 0.137512 0.450262
0.120055 0.131831 0.450056
0.235698 0.122274 0.449723
0.356744 0.105668 0.449185
0.495035 0.074571 0.448314
0.000000 0.235484 0.448567
0.000000 0.234878 0.448533
0.000000 0.234006 0.448484
0.000000 0.232591 0.448405
0.000000 0.230289 0.448277
0.080690 0.226527 0.448070
0.214054 0.220335 0.447736
0.342203 0.210009 0.447195
0.484610 0.192373 0.446321
0.000000 0.338117 0.445343
0.000000 0.337680 0.445309
0.000000 0.337052 0.445260
0.000000 0.336035 0.445180
0.000000 0.334387 0.445051
0.009214 0.331706 0.444843
0.174590 0.327333 0.444506
0.317388 0.320148 0.443962
0.467270 0.308213 0.443081
0.000000 0.459552 0.440085
0.000000 0.459229 0.440051
0.000000 0.458764 0.440001
0.000000 0.458012 0.439920
0.000000 0.456794 0.439790
0.000000 0.454820 0.439579
0.089311 0.451612 0.439238
0.272956 0.446380 0.438687
0.437796 0.437796 0.437796
