config/luts/REDLog3G10_RWG_to_Rec709.cube
# REDLog3G10 / REDWideGamutRGB → Rec.709
# Generated by spheris-smart-stitch/tools/generate_lut.py
TITLE "REDLog3G10 RWG to Rec.709"
LUT_3D_SIZE 5
DOMAIN_MIN 0.0 0.0 0.0
DOMAIN_MAX 1.0 1.0 1.0
0.000000 0.000000 0.000000
0.038618 0.000000 0.000000
0.145784 0.000000 0.000000
0.301096 0.000000 0.000000
0.530127 0.000000 0.000000
0.000000 0.030001 0.000000
0.027601 0.026866 0.000000
0.138045 0.019059 0.000000
0.296907 0.000000 0.000000
0.527727 0.000000 0.000000
0.000000 0.123871 0.000000
0.000160 0.121433 0.000000
0.117280 0.115213 0.000000
0.286227 0.097832 0.000000
0.521700 0.045309 0.000000
0.000000 0.266772 0.000000
0.000000 0.265447 0.000000
0.049817 0.262122 0.000000
0.256485 0.253262 0.000000
0.505622 0.228740 0.000000
0.000000 0.476903 0.000000
0.000000 0.476143 0.000000
0.000000 0.474246 0.000000
0.158812 0.469258 0.000000
0.460969 0.455979 0.000000
0.000000 0.000000 0.026502
0.035274 0.000000 0.026179
0.143467 0.000000 0.025376
0.299830 0.000000 0.023278
0.529399 0.000000 0.017801
0.000000 0.027391 0.024580
0.024257 0.024257 0.024257
0.135634 0.016450 0.023453
0.295624 0.000000 0.021355
0.526996 0.000000 0.015879
0.000000 0.121844 0.019791
0.000000 0.119378 0.019468
0.114580 0.113084 0.018664
0.284901 0.095468 0.016566
0.520961 0.042699 0.011090
0.000000 0.265670 0.007292
0.000000 0.264340 0.006969
0.046473 0.261003 0.006165
0.255021 0.252107 0.004067
0.504859 0.227479 0.000000
0.000000 0.476271 0.000000
0.000000 0.475510 0.000000
0.000000 0.473611 0.000000
0.156639 0.468616 0.000000
0.460131 0.455317 0.000000
0.000000 0.000000 0.114180
0.026945 0.000000 0.113916
0.137575 0.000000 0.113258
0.296655 0.000000 0.111529
0.527584 0.000000 0.106932
0.000000 0.020893 0.112604
0.015928 0.017758 0.112338
0.129494 0.009951 0.111674
0.292407 0.000000 0.109929
0.525172 0.000000 0.105288
0.000000 0.116693 0.108617
0.000000 0.114155 0.108345
0.107665 0.107665 0.107665
0.281573 0.089423 0.105878
0.519115 0.036201 0.101121
0.000000 0.262907 0.097740
0.000000 0.261565 0.097449
0.038144 0.258195 0.096723
0.251343 0.249212 0.094812
0.502952 0.224312 0.089711
0.000000 0.474693 0.065771
0.000000 0.473929 0.065448
0.000000 0.472023 0.064645
0.151125 0.467011 0.062547
0.458035 0.453666 0.057070
0.000000 0.000000 0.251652
0.005206 0.000000 0.251508
0.121279 0.000000 0.251151
0.288218 0.000000 0.250217
0.522814 0.000000 0.247762
0.000000 0.003929 0.250797
0.000000 0.000795 0.250653
0.112428 0.000000 0.250295
0.283855 0.000000 0.249357
0.520379 0.000000 0.246896
0.000000 0.102484 0.248656
0.000000 0.099722 0.248512
0.088126 0.092628 0.248151
0.272715 0.072427 0.247206
0.514264 0.019237 0.244726
0.000000 0.255570 0.242992
0.000000 0.254194 0.242844
0.016404 0.250737 0.242476
0.241512 0.241512 0.241512
0.497940 0.215860 0.238981
0.000000 0.470548 0.227638
0.000000 0.469778 0.227482
0.000000 0.467855 0.227092
0.135981 0.462797 0.226072
0.452520 0.449326 0.223391
0.000000 0.000000 0.453487
0.000000 0.000000 0.453404
0.069743 0.000000 0.453200
0.265058 0.000000 0.452665
0.510147 0.000000 0.451265
0.000000 0.000000 0.452997
0.000000 0.000000 0.452914
0.058726 0.000000 0.452709
0.260349 0.000000 0.452174
0.507651 0.000000 0.450773
0.000000 0.059471 0.451774
0.000000 0.056336 0.451692
0.031285 0.048529 0.451486
0.248278 0.028151 0.450949
0.501377 0.000000 0.449544
0.000000 0.235484 0.448567
0.000000 0.234006 0.448484
0.000000 0.230289 0.448277
0.214054 0.220335 0.447736
0.484610 0.192373 0.446321
0.000000 0.459552 0.440085
0.000000 0.458764 0.440001
0.000000 0.456794 0.439790
0.089311 0.451612 0.439238
0.437796 0.437796 0.437796
