config/luts/REDLog3G10_RWG_to_Rec709.cube
# REDLog3G10 / REDWideGamutRGB → Rec.709
# Generated by spheris-smart-stitch/tools/generate_lut.py
TITLE "REDLog3G10 RWG to Rec.709"
LUT_3D_SIZE 33
DOMAIN_MIN 0.0 0.0 0.0
DOMAIN_MAX 1.0 1.0 1.0
0.000000 0.000000 0.000000
0.000000 0.000000 0.000000
0.000000 0.000000 0.000000
0.004649 0.000000 0.000000
0.009918 0.000000 0.000000
0.015858 0.000000 0.000000
0.022555 0.000000 0.000000
0.030106 0.000000 0.000000
0.038618 0.000000 0.000000
0.048215 0.000000 0.000000
0.059035 0.000000 0.000000
0.071234 0.000000 0.000000
0.085187 0.000000 0.000000
0.099614 0.000000 0.000000
0.114478 0.000000 0.000000
0.129846 0.000000 0.000000
0.145784 0.000000 0.000000
0.162352 0.000000 0.000000
0.179611 0.000000 0.000000
0.197621 0.000000 0.000000
0.216442 0.000000 0.000000
0.236137 0.000000 0.000000
0.256767 0.000000 0.000000
0.278398 0.000000 0.000000
0.301096 0.000000 0.000000
0.324932 0.000000 0.000000
0.349977 0.000000 0.000000
0.376307 0.000000 0.000000
0.404001 0.000000 0.000000
0.433141 0.000000 0.000000
0.463814 0.000000 0.000000
0.496111 0.000000 0.000000
0.530127 0.000000 0.000000
0.000000 0.000000 0.000000
0.000000 0.000000 0.000000
0.000000 0.000000 0.000000
0.003538 0.000000 0.000000
0.008807 0.000000 0.000000
0.014748 0.000000 0.000000
0.021445 0.000000 0.000000
0.028995 0.000000 0.000000
0.037508 0.000000 0.000000
0.047105 0.000000 0.000000
0.057925 0.000000 0.000000
0.070123 0.000000 0.000000
0.084100 0.000000 0.000000
0.098624 0.000000 0.000000
0.113571 0.000000 0.000000
0.129014 0.000000 0.000000
0.145018 0.000000 0.000000
0.161645 0.000000 0.000000
0.178957 0.000000 0.000000
0.197015 0.000000 0.000000
0.215881 0.000000 0.000000
0.235615 0.000000 0.000000
0.256282 0.000000 0.000000
0.277947 0.000000 0.000000
0.300677 0.000000 0.000000
0.324541 0.000000 0.000000
0.349613 0.000000 0.000000
0.375967 0.000000 0.000000
0.403683 0.000000 0.000000
0.432845 0.000000 0.000000
0.463537 0.000000 0.000000
0.495852 0.000000 0.000000
0.529885 0.000000 0.000000
0.000000 0.000000 0.000000
0.000000 0.000000 0.000000
0.000000 0.000000 0.000000
0.002428 0.000000 0.000000
0.007697 0.000000 0.000000
0.013637 0.000000 0.000000
0.020334 0.000000 0.000000
0.027885 0.000000 0.000000
0.036397 0.000000 0.000000
0.045995 0.000000 0.000000
0.056815 0.000000 0.000000
0.069013 0.000000 0.000000
0.083006 0.000000 0.000000
0.097627 0.000000 0.000000
0.112660 0.000000 0.000000
0.128178 0.000000 0.000000
0.144248 0.000000 0.000000
0.160935 0.000000 0.000000
0.178301 0.000000 0.000000
0.196408 0.000000 0.000000
0.215318 0.000000 0.000000
0.235093 0.000000 0.000000
0.255797 0.000000 0.000000
0.277495 0.000000 0.000000
0.300256 0.000000 0.000000
0.324149 0.000000 0.000000
0.349248 0.000000 0.000000
0.375627 0.000000 0.000000
0.403366 0.000000 0.000000
0.432548 0.000000 0.000000
0.463261 0.000000 0.000000
0.495594 0.000000 0.000000
0.529644 0.000000 0.000000
0.000000 0.002043 0.000000
0.000000 0.001727 0.000000
0.000000 0.001411 0.000000
0.001317 0.001095 0.000000
0.006586 0.000756 0.000000
0.012526 0.000374 0.000000
0.019224 0.000000 0.000000
0.026774 0.000000 0.000000
0.035287 0.000000 0.000000
0.044884 0.000000 0.000000
0.055704 0.000000 0.000000
0.067902 0.000000 0.000000
0.081902 0.000000 0.000000
0.096624 0.000000 0.000000
0.111744 0.000000 0.000000
0.127338 0.000000 0.000000
0.143476 0.000000 0.000000
0.160223 0.000000 0.000000
0.177643 0.000000 0.000000
0.195799 0.000000 0.000000
0.214753 0.000000 0.000000
0.234569 0.000000 0.000000
0.255310 0.000000 0.000000
0.277043 0.000000 0.000000
0.299835 0.000000 0.000000
0.323757 0.000000 0.000000
0.348882 0.000000 0.000000
0.375286 0.000000 0.000000
0.403048 0.000000 0.000000
0.432252 0.000000 0.000000
0.462984 0.000000 0.000000
0.495335 0.000000 0.000000
0.529402 0.000000 0.000000
0.000000 0.006379 0.000000
0.000000 0.006064 0.000000
0.000000 0.005748 0.000000
0.000125 0.005432 0.000000
0.005394 0.005092 0.000000
0.011334 0.004710 0.000000
0.018032 0.004279 0.000000
0.025582 0.003793 0.000000
0.034095 0.003245 0.000000
0.043692 0.002627 0.000000
0.054512 0.001931 0.000000
0.066710 0.001145 0.000000
0.080463 0.000260 0.000000
0.095540 0.000000 0.000000
0.110755 0.000000 0.000000
0.126432 0.000000 0.000000
0.142643 0.000000 0.000000
0.159456 0.000000 0.000000
0.176935 0.000000 0.000000
0.195144 0.000000 0.000000
0.214146 0.000000 0.000000
0.234006 0.000000 0.000000
0.254787 0.000000 0.000000
0.276557 0.000000 0.000000
0.299383 0.000000 0.000000
0.323336 0.000000 0.000000
0.348489 0.000000 0.000000
0.374920 0.000000 0.000000
0.402707 0.000000 0.000000
0.431933 0.000000 0.000000
0.462686 0.000000 0.000000
0.495057 0.000000 0.000000
0.529143 0.000000 0.000000
0.000000 0.011268 0.000000
0.000000 0.010953 0.000000
0.000000 0.010637 0.000000
0.000000 0.010321 0.000000
0.004050 0.009981 0.000000
0.009990 0.009599 0.000000
0.016687 0.009168 0.000000
0.024238 0.008682 0.000000
0.032750 0.008134 0.000000
0.042348 0.007516 0.000000
0.053168 0.006820 0.000000
0.065366 0.006034 0.000000
0.079119 0.005149 0.000000
0.094309 0.004151 0.000000
0.109633 0.003026 0.000000
0.125405 0.001757 0.000000
0.141700 0.000327 0.000000
0.158588 0.000000 0.000000
0.176134 0.000000 0.000000
0.194403 0.000000 0.000000
0.213460 0.000000 0.000000
0.233369 0.000000 0.000000
0.254196 0.000000 0.000000
0.276007 0.000000 0.000000
0.298872 0.000000 0.000000
0.322860 0.000000 0.000000
0.348046 0.000000 0.000000
0.374507 0.000000 0.000000
0.402321 0.000000 0.000000
0.431573 0.000000 0.000000
0.462350 0.000000 0.000000
0.494744 0.000000 0.000000
0.528850 0.000000 0.000000
0.000000 0.016780 0.000000
0.000000 0.016464 0.000000
0.000000 0.016149 0.000000
0.000000 0.015833 0.000000
0.002535 0.015493 0.000000
0.008475 0.015111 0.000000
0.015172 0.014680 0.000000
0.022723 0.014194 0.000000
0.031235 0.013646 0.000000
0.040832 0.013028 0.000000
0.051652 0.012332 0.000000
0.063851 0.011546 0.000000
0.077604 0.010661 0.000000
0.092910 0.009663 0.000000
0.108359 0.008538 0.000000
0.124240 0.007269 0.000000
0.140632 0.005839 0.000000
0.157604 0.004226 0.000000
0.175227 0.002408 0.000000
0.193565 0.000358 0.000000
0.212684 0.000000 0.000000
0.232650 0.000000 0.000000
0.253529 0.000000 0.000000
0.275387 0.000000 0.000000
0.298295 0.000000 0.000000
0.322323 0.000000 0.000000
0.347546 0.000000 0.000000
0.374040 0.000000 0.000000
0.401886 0.000000 0.000000
0.431168 0.000000 0.000000
0.461972 0.000000 0.000000
0.494390 0.000000 0.000000
0.528520 0.000000 0.000000
0.000000 0.022995 0.000000
0.000000 0.022679 0.000000
0.000000 0.022363 0.000000
0.000000 0.022047 0.000000
0.000826 0.021708 0.000000
0.006767 0.021325 0.000000
0.013464 0.020894 0.000000
0.021014 0.020408 0.000000
0.029527 0.019860 0.000000
0.039124 0.019242 0.000000
0.049944 0.018546 0.000000
0.062142 0.017761 0.000000
0.075895 0.016875 0.000000
0.091317 0.015877 0.000000
0.106911 0.014752 0.000000
0.122919 0.013483 0.000000
0.139420 0.012053 0.000000
0.156491 0.010440 0.000000
0.174200 0.008622 0.000000
0.192617 0.006573 0.000000
0.211807 0.004262 0.000000
0.231837 0.001657 0.000000
0.252774 0.000000 0.000000
0.274686 0.000000 0.000000
0.297643 0.000000 0.000000
0.321716 0.000000 0.000000
0.346981 0.000000 0.000000
0.373514 0.000000 0.000000
0.401396 0.000000 0.000000
0.430710 0.000000 0.000000
0.461544 0.000000 0.000000
0.493991 0.000000 0.000000
0.528147 0.000000 0.000000
0.000000 0.030001 0.000000
0.000000 0.029685 0.000000
0.000000 0.029369 0.000000
0.000000 0.029053 0.000000
0.000000 0.028714 0.000000
0.004841 0.028331 0.000000
0.011538 0.027900 0.000000
0.019088 0.027414 0.000000
0.027601 0.026866 0.000000
0.037198 0.026248 0.000000
0.048018 0.025552 0.000000
0.060216 0.024767 0.000000
0.073969 0.023881 0.000000
0.089502 0.022883 0.000000
0.105264 0.021758 0.000000
0.121417 0.020489 0.000000
0.138045 0.019059 0.000000
0.155228 0.017446 0.000000
0.173037 0.015628 0.000000
0.191543 0.013579 0.000000
0.210814 0.011268 0.000000
0.230917 0.008663 0.000000
0.251921 0.005726 0.000000
0.273894 0.002414 0.000000
0.296907 0.000000 0.000000
0.321031 0.000000 0.000000
0.346343 0.000000 0.000000
0.372920 0.000000 0.000000
0.400841 0.000000 0.000000
0.430193 0.000000 0.000000
0.461062 0.000000 0.000000
0.493541 0.000000 0.000000
0.527727 0.000000 0.000000
0.000000 0.037899 0.000000
0.000000 0.037583 0.000000
0.000000 0.037268 0.000000
0.000000 0.036952 0.000000
0.000000 0.036612 0.000000
0.002669 0.036230 0.000000
0.009366 0.035799 0.000000
0.016917 0.035313 0.000000
0.025429 0.034765 0.000000
0.035027 0.034147 0.000000
0.045846 0.033451 0.000000
0.058045 0.032665 0.000000
0.071798 0.031780 0.000000
0.087430 0.030782 0.000000
0.103388 0.029657 0.000000
0.119708 0.028388 0.000000
0.136483 0.026958 0.000000
0.153794 0.025345 0.000000
0.171718 0.023527 0.000000
0.190327 0.021477 0.000000
0.209690 0.019167 0.000000
0.229877 0.016561 0.000000
0.250956 0.013624 0.000000
0.272998 0.010313 0.000000
0.296074 0.006580 0.000000
0.320257 0.002371 0.000000
0.345623 0.000000 0.000000
0.372248 0.000000 0.000000
0.400216 0.000000 0.000000
0.429610 0.000000 0.000000
0.460518 0.000000 0.000000
0.493033 0.000000 0.000000
0.527252 0.000000 0.000000
0.000000 0.046804 0.000000
0.000000 0.046489 0.000000
0.000000 0.046173 0.000000
0.000000 0.045857 0.000000
0.000000 0.045517 0.000000
0.000221 0.045135 0.000000
0.006918 0.044704 0.000000
0.014469 0.044218 0.000000
0.022981 0.043670 0.000000
0.032578 0.043052 0.000000
0.043398 0.042356 0.000000
0.055597 0.041570 0.000000
0.069350 0.040685 0.000000
0.085059 0.039687 0.000000
0.101246 0.038562 0.000000
0.117762 0.037293 0.000000
0.134707 0.035863 0.000000
0.152167 0.034250 0.000000
0.170222 0.032432 0.000000
0.188948 0.030383 0.000000
0.208417 0.028072 0.000000
0.228699 0.025467 0.000000
0.249865 0.022529 0.000000
0.271985 0.019218 0.000000
0.295133 0.015485 0.000000
0.319382 0.011276 0.000000
0.344809 0.006530 0.000000
0.371490 0.001181 0.000000
0.399509 0.000000 0.000000
0.428951 0.000000 0.000000
0.459904 0.000000 0.000000
0.492460 0.000000 0.000000
0.526717 0.000000 0.000000
0.000000 0.056844 0.000000
0.000000 0.056528 0.000000
0.000000 0.056212 0.000000
0.000000 0.055896 0.000000
0.000000 0.055557 0.000000
0.000000 0.055175 0.000000
0.004158 0.054744 0.000000
0.011709 0.054258 0.000000
0.020221 0.053710 0.000000
0.029818 0.053092 0.000000
0.040638 0.052395 0.000000
0.052837 0.051610 0.000000
0.066590 0.050725 0.000000
0.082340 0.049727 0.000000
0.098797 0.048601 0.000000
0.115542 0.047333 0.000000
0.132684 0.045902 0.000000
0.150316 0.044290 0.000000
0.168523 0.042472 0.000000
0.187384 0.040422 0.000000
0.206973 0.038111 0.000000
0.227364 0.035506 0.000000
0.248629 0.032569 0.000000
0.270839 0.029258 0.000000
0.294069 0.025524 0.000000
0.318394 0.021315 0.000000
0.343889 0.016570 0.000000
0.370634 0.011220 0.000000
0.398712 0.005189 0.000000
0.428207 0.000000 0.000000
0.459210 0.000000 0.000000
0.491813 0.000000 0.000000
0.526113 0.000000 0.000000
0.000000 0.068163 0.000000
0.000000 0.067847 0.000000
0.000000 0.067531 0.000000
0.000000 0.067215 0.000000
0.000000 0.066876 0.000000
0.000000 0.066494 0.000000
0.001047 0.066063 0.000000
0.008597 0.065577 0.000000
0.017110 0.065029 0.000000
0.026707 0.064411 0.000000
0.037527 0.063714 0.000000
0.049725 0.062929 0.000000
0.063478 0.062044 0.000000
0.078983 0.061046 0.000000
0.095992 0.059920 0.000000
0.113006 0.058652 0.000000
0.130377 0.057221 0.000000
0.148209 0.055609 0.000000
0.166591 0.053791 0.000000
0.185608 0.051741 0.000000
0.205336 0.049430 0.000000
0.225852 0.046825 0.000000
0.247229 0.043888 0.000000
0.269542 0.040577 0.000000
0.292866 0.036843 0.000000
0.317275 0.032634 0.000000
0.342849 0.027889 0.000000
0.369666 0.022539 0.000000
0.397810 0.016508 0.000000
0.427367 0.009708 0.000000
0.458427 0.002041 0.000000
0.491082 0.000000 0.000000
0.525431 0.000000 0.000000
0.000000 0.080924 0.000000
0.000000 0.080608 0.000000
0.000000 0.080292 0.000000
0.000000 0.079976 0.000000
0.000000 0.079637 0.000000
0.000000 0.079255 0.000000
0.000000 0.078824 0.000000
0.005089 0.078338 0.000000
0.013602 0.077790 0.000000
0.023199 0.077172 0.000000
0.034019 0.076475 0.000000
0.046217 0.075690 0.000000
0.059970 0.074805 0.000000
0.075475 0.073807 0.000000
0.092768 0.072681 0.000000
0.110100 0.071413 0.000000
0.127742 0.069983 0.000000
0.145807 0.068370 0.000000
0.164393 0.066552 0.000000
0.183589 0.064502 0.000000
0.203477 0.062192 0.000000
0.224136 0.059586 0.000000
0.245643 0.056649 0.000000
0.268073 0.053338 0.000000
0.291503 0.049604 0.000000
0.316010 0.045395 0.000000
0.341672 0.040650 0.000000
0.368572 0.035300 0.000000
0.396791 0.029269 0.000000
0.426418 0.022469 0.000000
0.457542 0.014802 0.000000
0.490257 0.006159 0.000000
0.524661 0.000000 0.000000
0.000000 0.094940 0.000000
0.000000 0.094650 0.000000
0.000000 0.094360 0.000000
0.000000 0.094070 0.000000
0.000000 0.093757 0.000000
0.000000 0.093404 0.000000
0.000000 0.093005 0.000000
0.001134 0.092554 0.000000
0.009646 0.092043 0.000000
0.019244 0.091466 0.000000
0.030063 0.090813 0.000000
0.042262 0.090073 0.000000
0.056015 0.089234 0.000000
0.071520 0.088283 0.000000
0.089052 0.087204 0.000000
0.106765 0.085978 0.000000
0.124726 0.084584 0.000000
0.143064 0.082997 0.000000
0.161887 0.080939 0.000000
0.181291 0.078889 0.000000
0.201364 0.076579 0.000000
0.222188 0.073973 0.000000
0.243844 0.071036 0.000000
0.266408 0.067725 0.000000
0.289960 0.063992 0.000000
0.314578 0.059783 0.000000
0.340342 0.055037 0.000000
0.367334 0.049687 0.000000
0.395640 0.043656 0.000000
0.425345 0.036856 0.000000
0.456542 0.029189 0.000000
0.489325 0.020546 0.000000
0.523792 0.010802 0.000000
0.000000 0.109152 0.000000
0.000000 0.108887 0.000000
0.000000 0.108621 0.000000
0.000000 0.108354 0.000000
0.000000 0.108068 0.000000
0.000000 0.107744 0.000000
0.000000 0.107379 0.000000
0.000000 0.106966 0.000000
0.005187 0.106499 0.000000
0.014784 0.105971 0.000000
0.025604 0.105374 0.000000
0.037803 0.104698 0.000000
0.051556 0.103933 0.000000
0.067061 0.103066 0.000000
0.084753 0.102083 0.000000
0.102923 0.100968 0.000000
0.121264 0.099702 0.000000
0.139925 0.098262 0.000000
0.159026 0.096623 0.000000
0.178673 0.094755 0.000000
0.198961 0.092622 0.000000
0.219975 0.090183 0.000000
0.241801 0.087385 0.000000
0.264519 0.084168 0.000000
0.288211 0.080212 0.000000
0.312956 0.076003 0.000000
0.338836 0.071257 0.000000
0.365935 0.065908 0.000000
0.394338 0.059876 0.000000
0.424133 0.053076 0.000000
0.455413 0.045410 0.000000
0.488272 0.036766 0.000000
0.522810 0.027022 0.000000
0.000000 0.123871 0.000000
0.000000 0.123627 0.000000
0.000000 0.123382 0.000000
0.000000 0.123137 0.000000
0.000000 0.122874 0.000000
0.000000 0.122577 0.000000
0.000000 0.122241 0.000000
0.000000 0.121862 0.000000
0.000160 0.121433 0.000000
0.009757 0.120949 0.000000
0.020577 0.120401 0.000000
0.032776 0.119781 0.000000
0.046529 0.119080 0.000000
0.062034 0.118287 0.000000
0.079514 0.117388 0.000000
0.098481 0.116369 0.000000
0.117280 0.115213 0.000000
0.136325 0.113900 0.000000
0.155754 0.112409 0.000000
0.175685 0.110711 0.000000
0.196222 0.108777 0.000000
0.217457 0.106570 0.000000
0.239480 0.104047 0.000000
0.262376 0.101155 0.000000
0.286227 0.097832 0.000000
0.311118 0.094002 0.000000
0.337130 0.089568 0.000000
0.364350 0.084413 0.000000
0.392864 0.078163 0.000000
0.422762 0.071363 0.000000
0.454136 0.063696 0.000000
0.487082 0.055053 0.000000
0.521700 0.045309 0.000000
0.000000 0.139155 0.000000
0.000000 0.138930 0.000000
0.000000 0.138704 0.000000
0.000000 0.138478 0.000000
0.000000 0.138236 0.000000
0.000000 0.137962 0.000000
0.000000 0.137653 0.000000
0.000000 0.137303 0.000000
0.000000 0.136909 0.000000
0.004090 0.136463 0.000000
0.014909 0.135959 0.000000
0.027108 0.135390 0.000000
0.040861 0.134745 0.000000
0.056366 0.134017 0.000000
0.073847 0.133192 0.000000
0.093323 0.132257 0.000000
0.112678 0.131198 0.000000
0.132183 0.129997 0.000000
0.152002 0.128633 0.000000
0.172268 0.127083 0.000000
0.193096 0.125321 0.000000
0.214589 0.123313 0.000000
0.236840 0.121022 0.000000
0.259940 0.118405 0.000000
0.283976 0.115406 0.000000
0.309033 0.111963 0.000000
0.335198 0.107997 0.000000
0.362556 0.103412 0.000000
0.391197 0.098085 0.000000
0.421211 0.091859 0.000000
0.452692 0.084529 0.000000
0.485737 0.075670 0.000000
0.520446 0.065926 0.000000
0.000000 0.155061 0.000000
0.000000 0.154853 0.000000
0.000000 0.154645 0.000000
0.000000 0.154436 0.000000
0.000000 0.154212 0.000000
0.000000 0.153959 0.000000
0.000000 0.153674 0.000000
0.000000 0.153351 0.000000
0.000000 0.152987 0.000000
0.000000 0.152576 0.000000
0.008520 0.152112 0.000000
0.020718 0.151587 0.000000
0.034471 0.150993 0.000000
0.049976 0.150322 0.000000
0.067457 0.149563 0.000000
0.087297 0.148703 0.000000
0.107339 0.147729 0.000000
0.127402 0.146626 0.000000
0.147687 0.145375 0.000000
0.168351 0.143955 0.000000
0.189523 0.142342 0.000000
0.211316 0.140508 0.000000
0.233833 0.138419 0.000000
0.257170 0.136036 0.000000
0.281419 0.133314 0.000000
0.306668 0.130198 0.000000
0.333006 0.126621 0.000000
0.360523 0.122503 0.000000
0.389309 0.117746 0.000000
0.419456 0.112225 0.000000
0.451059 0.105781 0.000000
0.484216 0.098205 0.000000
0.519029 0.089213 0.000000
0.000000 0.171646 0.000000
0.000000 0.171454 0.000000
0.000000 0.171261 0.000000
0.000000 0.171068 0.000000
0.000000 0.170861 0.000000
0.000000 0.170627 0.000000
0.000000 0.170363 0.000000
0.000000 0.170065 0.000000
0.000000 0.169728 0.000000
0.000000 0.169348 0.000000
0.001316 0.168919 0.000000
0.013514 0.168434 0.000000
0.027267 0.167886 0.000000
0.042772 0.167266 0.000000
0.060253 0.166566 0.000000
0.079961 0.165773 0.000000
0.101109 0.164876 0.000000
0.121860 0.163860 0.000000
0.142710 0.162709 0.000000
0.163849 0.161404 0.000000
0.185428 0.159923 0.000000
0.207575 0.158241 0.000000
0.230403 0.156328 0.000000
0.254015 0.154150 0.000000
0.278510 0.151667 0.000000
0.303980 0.148831 0.000000
0.330519 0.145585 0.000000
0.358217 0.141861 0.000000
0.387169 0.137577 0.000000
0.417468 0.132630 0.000000
0.449210 0.126893 0.000000
0.482495 0.120204 0.000000
0.517427 0.112350 0.000000
0.000000 0.188967 0.000000
0.000000 0.188789 0.000000
0.000000 0.188610 0.000000
0.000000 0.188431 0.000000
0.000000 0.188239 0.000000
0.000000 0.188023 0.000000
0.000000 0.187778 0.000000
0.000000 0.187502 0.000000
0.000000 0.187190 0.000000
0.000000 0.186838 0.000000
0.000000 0.186441 0.000000
0.005392 0.185992 0.000000
0.019145 0.185485 0.000000
0.034650 0.184912 0.000000
0.052131 0.184265 0.000000
0.071839 0.183533 0.000000
0.093788 0.182704 0.000000
0.115400 0.181767 0.000000
0.136944 0.180705 0.000000
0.158657 0.179502 0.000000
0.180723 0.178139 0.000000
0.203289 0.176591 0.000000
0.226482 0.174834 0.000000
0.250416 0.172836 0.000000
0.275197 0.170562 0.000000
0.300924 0.167970 0.000000
0.327693 0.165009 0.000000
0.355601 0.161623 0.000000
0.384743 0.157739 0.000000
0.415215 0.153272 0.000000
0.447117 0.148118 0.000000
0.480548 0.142144 0.000000
0.515614 0.135184 0.000000
0.000000 0.207081 0.000000
0.000000 0.206915 0.000000
0.000000 0.206750 0.000000
0.000000 0.206584 0.000000
0.000000 0.206405 0.000000
0.000000 0.206204 0.000000
0.000000 0.205978 0.000000
0.000000 0.205721 0.000000
0.000000 0.205432 0.000000
0.000000 0.205106 0.000000
0.000000 0.204738 0.000000
0.000000 0.204322 0.000000
0.009988 0.203852 0.000000
0.025493 0.203322 0.000000
0.042974 0.202722 0.000000
0.062682 0.202044 0.000000
0.085104 0.201278 0.000000
0.107819 0.200411 0.000000
0.130229 0.199430 0.000000
0.152647 0.198319 0.000000
0.175300 0.197061 0.000000
0.198366 0.195634 0.000000
0.221991 0.194015 0.000000
0.246304 0.192177 0.000000
0.271419 0.190088 0.000000
0.297443 0.187710 0.000000
0.324480 0.185000 0.000000
0.352629 0.181906 0.000000
0.381990 0.178367 0.000000
0.412661 0.174310 0.000000
0.444745 0.169645 0.000000
0.478343 0.164265 0.000000
0.513562 0.158034 0.000000
0.000000 0.226046 0.000000
0.000000 0.225892 0.000000
0.000000 0.225738 0.000000
0.000000 0.225584 0.000000
0.000000 0.225419 0.000000
0.000000 0.225232 0.000000
0.000000 0.225021 0.000000
0.000000 0.224783 0.000000
0.000000 0.224515 0.000000
0.000000 0.224212 0.000000
0.000000 0.223870 0.000000
0.000000 0.223484 0.000000
0.000000 0.223049 0.000000
0.015170 0.222556 0.000000
0.032650 0.222000 0.000000
0.052358 0.221372 0.000000
0.074577 0.220662 0.000000
0.098844 0.219859 0.000000
0.122359 0.218951 0.000000
0.145653 0.217923 0.000000
0.169024 0.216760 0.000000
0.192693 0.215442 0.000000
0.216834 0.213947 0.000000
0.241594 0.212252 0.000000
0.267102 0.210327 0.000000
0.293474 0.208140 0.000000
0.320821 0.205650 0.000000
0.349250 0.202813 0.000000
0.378863 0.199576 0.000000
0.409763 0.195873 0.000000
0.442055 0.191629 0.000000
0.475845 0.186752 0.000000
0.511239 0.181128 0.000000
0.000000 0.245923 0.000000
0.000000 0.245779 0.000000
0.000000 0.245636 0.000000
0.000000 0.245493 0.000000
0.000000 0.245339 0.000000
0.000000 0.245165 0.000000
0.000000 0.244969 0.000000
0.000000 0.244748 0.000000
0.000000 0.244499 0.000000
0.000000 0.244217 0.000000
0.000000 0.243900 0.000000
0.000000 0.243541 0.000000
0.000000 0.243137 0.000000
0.003531 0.242680 0.000000
0.021012 0.242163 0.000000
0.040720 0.241580 0.000000
0.062939 0.240921 0.000000
0.088087 0.240177 0.000000
0.113054 0.239335 0.000000
0.137463 0.238383 0.000000
0.161727 0.237305 0.000000
0.186132 0.236085 0.000000
0.210894 0.234703 0.000000
0.236187 0.233137 0.000000
0.262159 0.231360 0.000000
0.288939 0.229342 0.000000
0.316649 0.227049 0.000000
0.345402 0.224440 0.000000
0.375307 0.221468 0.000000
0.406471 0.218076 0.000000
0.439004 0.214197 0.000000
0.473012 0.209753 0.000000
0.508607 0.204647 0.000000
0.000000 0.266772 0.000000
0.000000 0.266639 0.000000
0.000000 0.266506 0.000000
0.000000 0.266372 0.000000
0.000000 0.266229 0.000000
0.000000 0.266067 0.000000
0.000000 0.265885 0.000000
0.000000 0.265679 0.000000
0.000000 0.265447 0.000000
0.000000 0.265186 0.000000
0.000000 0.264890 0.000000
0.000000 0.264557 0.000000
0.000000 0.264181 0.000000
0.000000 0.263756 0.000000
0.007890 0.263276 0.000000
0.027598 0.262734 0.000000
0.049817 0.262122 0.000000
0.074867 0.261431 0.000000
0.101925 0.260649 0.000000
0.127792 0.259766 0.000000
0.153188 0.258766 0.000000
0.178506 0.257636 0.000000
0.204025 0.256355 0.000000
0.229960 0.254905 0.000000
0.256485 0.253262 0.000000
0.283748 0.251397 0.000000
0.311883 0.249281 0.000000
0.341014 0.246876 0.000000
0.371258 0.244139 0.000000
0.402728 0.241022 0.000000
0.435537 0.237465 0.000000
0.469798 0.233399 0.000000
0.505622 0.228740 0.000000
0.000000 0.288659 0.000000
0.000000 0.288535 0.000000
0.000000 0.288411 0.000000
0.000000 0.288286 0.000000
0.000000 0.288153 0.000000
0.000000 0.288003 0.000000
0.000000 0.287833 0.000000
0.000000 0.287641 0.000000
0.000000 0.287425 0.000000
0.000000 0.287182 0.000000
0.000000 0.286907 0.000000
0.000000 0.286597 0.000000
0.000000 0.286246 0.000000
0.000000 0.285851 0.000000
0.000000 0.285405 0.000000
0.012804 0.284901 0.000000
0.035023 0.284332 0.000000
0.060073 0.283689 0.000000
0.088399 0.282963 0.000000
0.116246 0.282142 0.000000
0.143116 0.281214 0.000000
0.169589 0.280165 0.000000
0.196046 0.278977 0.000000
0.222763 0.277633 0.000000
0.249952 0.276111 0.000000
0.277790 0.274385 0.000000
0.306428 0.272427 0.000000
0.336003 0.270205 0.000000
0.366642 0.267680 0.000000
0.398467 0.264808 0.000000
0.431596 0.261536 0.000000
0.466147 0.257803 0.000000
0.502236 0.253537 0.000000
0.000000 0.311650 0.000000
0.000000 0.311534 0.000000
0.000000 0.311418 0.000000
0.000000 0.311303 0.000000
0.000000 0.311178 0.000000
0.000000 0.311038 0.000000
0.000000 0.310880 0.000000
0.000000 0.310702 0.000000
0.000000 0.310501 0.000000
0.000000 0.310274 0.000000
0.000000 0.310017 0.000000
0.000000 0.309728 0.000000
0.000000 0.309402 0.000000
0.000000 0.309034 0.000000
0.000000 0.308619 0.000000
0.000000 0.308150 0.000000
0.018345 0.307621 0.000000
0.043395 0.307023 0.000000
0.071636 0.306347 0.000000
0.102248 0.305584 0.000000
0.131109 0.304722 0.000000
0.159081 0.303746 0.000000
0.186722 0.302644 0.000000
